X: 26502
T: Michael O' Connor
R: reel
M: 4/4
K: Cmajor
g2 gf {f}e2 d2|c2 Bc d2 G2|cBAG F2 A2|G2 AB c2 C2|G2 C2 GFEG|A2 D2 AGFA|
G2 E2 FEDC|B,C D2 G,4|g2 gg e2 e2|a2 aa d2 d2|gagf efed|"tr"B2 AB c4||
G2 GE C2 G,2|A2 AF D2 A,2|GABc GABc|A2 Bc d4|e2 dc c2 G2|gfed c2 e2|
fafa egfe|dcBA G4|g2 gg e2 e2|a2 aa d2 d2|abc'a abc'e|d3 c c4||

